X: 31
T:Thomas Houghton's.... JaW.031
M:C|
Q:1/4=180
C:"..way of playing Hettebe() Bender()"
S:James Winder Ms, Lancashire, 1835-41
R:Country Dance
O:England
A:Wyresdale,Lancashire
N:Title not clear in MS..
H:1/8
Z:vmp.Chris Partington, Aug 2004
K:G
B2AG G2G2|A2G2 ABc2|B2AG G2G2|A2G2 ABc2:|!
|B>c dd d2d2|edcB ABc2|c2cc c2ce|dcBA GAB2|!
G2GG F2FF|E2E2D2D2|c2cc B2ce|dcBA GFG2|]
